assets/logos/architectural-digest.svg

<svg width="219" height="15" viewBox="0 0 219 15" fill="none" xmlns="http://www.w3.org/2000/svg">
<path fill-rule="evenodd" clip-rule="evenodd" d="M218.947 5.54001V1.05501H207.599C207.599 1.05501 207.507 1.05501 207.507 1.14701V5.54001H207.69C207.69 3.43501 208.88 1.23801 211.534 1.23801H211.717C211.809 1.23801 211.809 1.23801 211.809 1.33001V13.685C211.809 13.776 211.809 13.776 211.717 13.776H210.161V13.959H216.11V13.776H214.463C214.371 13.776 214.371 13.776 214.371 13.685V1.33001C214.371 1.23801 214.371 1.23801 214.463 1.23801H214.646C217.3 1.23801 218.581 3.34301 218.581 5.54001C218.672 5.63101 218.947 5.63101 218.947 5.54001ZM207.416 10.024C207.416 7.82801 205.952 6.91201 203.572 6.08901C201.284 5.26501 200.278 4.53301 200.278 3.25201C200.278 1.97101 201.193 1.05501 202.658 1.05501C204.304 1.05501 205.768 2.61101 205.768 4.35001H205.952V0.872006C205.952 0.781006 205.769 0.781006 205.769 0.872006C205.769 1.05501 205.586 1.33001 205.037 1.33001C204.121 1.33001 203.664 0.872006 202.657 0.872006C200.827 0.872006 199.18 2.61201 199.18 4.99101C199.18 7.18701 200.552 8.10201 202.2 8.74301C205.037 9.74901 206.043 10.207 206.043 11.946C206.043 13.136 205.128 14.326 203.023 14.326C200.643 14.326 198.997 11.488 198.997 10.024C198.997 9.93201 198.813 9.93201 198.813 10.024V14.508C198.813 14.6 198.997 14.6 198.997 14.508C198.997 14.142 199.454 13.776 200.003 13.776C200.735 13.776 201.833 14.508 203.115 14.508C205.86 14.417 207.415 12.038 207.415 10.024H207.416ZM197.806 14.051V9.84001H197.624C197.624 11.762 196.343 13.958 193.323 13.958H191.493C191.401 13.958 191.401 13.958 191.401 13.867V7.55301H191.858C193.323 7.55301 194.238 8.74301 194.238 10.023H194.421V4.80901H194.238C194.238 6.08901 193.323 7.27901 191.858 7.27901H191.401V1.33001C191.401 1.23801 191.401 1.23801 191.492 1.23801H193.231C195.519 1.23801 196.617 3.25201 196.617 4.99101H196.8V1.14701C196.8 1.14701 196.8 1.05501 196.709 1.05501H187.099V1.23801H188.747C188.838 1.23801 188.838 1.23801 188.838 1.33001V13.685C188.838 13.776 188.838 13.776 188.747 13.776H187.099V13.959L197.807 14.051H197.806ZM187.65 9.20001V9.01601H181.7V9.20001H183.347C183.439 9.20001 183.439 9.20001 183.439 9.29201V12.586C183.439 13.593 182.889 14.234 181.242 14.234C180.419 14.234 179.778 14.051 179.321 13.501C178.497 12.586 178.405 11.031 178.405 7.64401C178.405 4.44101 178.68 2.61101 179.595 1.78701C180.145 1.23801 180.785 1.05501 181.517 1.05501C183.347 1.05501 184.903 3.43501 184.903 5.26501H185.086V0.872006H184.903C184.903 1.05501 184.537 1.33001 183.988 1.33001C183.348 1.33001 182.341 0.872006 181.517 0.872006C178.131 0.872006 175.569 4.07501 175.569 7.64401C175.569 11.122 177.765 14.417 181.242 14.417C183.256 14.417 184.171 13.501 184.995 13.501C185.544 13.501 185.727 13.776 185.818 14.142C185.818 14.234 186.093 14.234 186.093 14.142V9.20001C186.093 9.20001 186.093 9.10901 186.184 9.10901H187.649L187.65 9.20001ZM174.837 14.05V13.867H173.19C173.099 13.867 173.099 13.867 173.099 13.775V1.42101C173.099 1.33001 173.099 1.33001 173.19 1.33001H174.837V1.14701H168.889V1.33001H170.536C170.628 1.33001 170.628 1.33001 170.628 1.42101V13.776C170.628 13.868 170.628 13.868 170.536 13.868H168.889V14.051L174.837 14.05ZM165.777 7.55201C165.777 11.03 165.503 12.311 164.587 13.134C164.039 13.684 163.489 13.775 162.666 13.775H161.2C161.108 13.775 161.108 13.775 161.108 13.684V1.23801C161.108 1.14701 161.108 1.14701 161.2 1.14701H162.664C163.487 1.14701 164.128 1.33001 164.586 1.78701C165.501 2.79401 165.776 4.53301 165.776 7.55301L165.777 7.55201ZM168.614 7.55201C168.614 3.98201 165.96 1.05401 162.757 1.05401H156.9V1.23701H158.456C158.548 1.23701 158.548 1.23701 158.548 1.32901V13.684C158.548 13.775 158.548 13.775 158.456 13.775H156.9V13.958H162.757C165.96 14.05 168.614 11.121 168.614 7.55201ZM151.867 14.05V9.65801H151.684C151.684 11.488 150.403 13.868 147.657 13.868H146.1C146.009 13.868 146.009 13.868 146.009 13.776V1.42101C146.009 1.33001 146.009 1.33001 146.1 1.33001H147.748V1.14701H141.799V1.33001H143.447C143.538 1.33001 143.538 1.33001 143.538 1.42101V13.776C143.538 13.868 143.538 13.868 143.447 13.868H141.799V14.051H151.866L151.867 14.05ZM116.175 1.33001V1.14701H112.515V1.33001H114.162C114.253 1.33001 114.253 1.33001 114.253 1.42101V10.298C114.253 12.586 113.155 14.051 110.593 14.051C108.579 14.051 107.939 12.678 107.939 10.481V1.42101C107.939 1.33001 107.939 1.33001 108.03 1.33001H109.677V1.14701H103.729V1.33001H105.376C105.468 1.33001 105.468 1.33001 105.468 1.42101V10.481C105.468 13.227 107.389 14.417 110.135 14.417C113.155 14.417 114.528 12.769 114.528 10.298V1.42101C114.528 1.33001 114.528 1.33001 114.619 1.33001H116.175ZM102.997 5.54001V1.05501H91.74C91.74 1.05501 91.649 1.05501 91.649 1.14701V5.54001H91.832C91.832 3.43501 93.022 1.23801 95.675 1.23801H95.858C95.95 1.23801 95.95 1.23801 95.95 1.33001V13.685C95.95 13.776 95.95 13.776 95.858 13.776H94.303V13.959H100.251V13.776H98.604C98.512 13.776 98.512 13.776 98.512 13.685V1.33001C98.512 1.23801 98.512 1.23801 98.604 1.23801H98.787C101.441 1.23801 102.722 3.34301 102.722 5.54001C102.722 5.63101 102.997 5.63101 102.997 5.54001ZM90.825 14.325V9.38301H90.642C90.642 11.763 88.812 14.143 86.615 14.143C85.792 14.143 85.06 13.959 84.602 13.41C83.778 12.495 83.412 10.665 83.412 7.55301C83.412 4.44101 83.778 2.52001 84.602 1.69601C85.152 1.14601 85.7 0.964006 86.524 0.964006C88.354 0.964006 90.276 3.34401 90.276 5.17401H90.459V0.872006H90.276C90.276 1.05501 89.91 1.33001 89.361 1.33001C88.537 1.33001 87.347 0.872006 86.524 0.872006C83.046 0.872006 80.575 4.07501 80.575 7.64401C80.575 11.305 83.138 14.417 86.615 14.417C87.622 14.417 88.995 13.867 89.818 13.867C90.368 13.867 90.642 14.234 90.642 14.417C90.642 14.325 90.825 14.325 90.825 14.325ZM79.843 14.051V9.84001H79.66C79.66 11.762 78.379 13.958 75.359 13.958H73.529C73.437 13.958 73.437 13.958 73.437 13.867V7.55301H73.895C75.359 7.55301 76.275 8.74301 76.275 10.023H76.457V4.80901H76.274C76.274 6.08901 75.359 7.27901 73.894 7.27901H73.437V1.33001C73.437 1.23801 73.437 1.23801 73.529 1.23801H75.267C77.555 1.23801 78.654 3.25201 78.654 4.99101H78.837V1.14701C78.837 1.14701 78.837 1.05501 78.745 1.05501H69.135V1.23801H70.783C70.875 1.23801 70.875 1.23801 70.875 1.33001V13.685C70.875 13.776 70.875 13.776 70.783 13.776H69.136V13.959L79.843 14.051ZM68.221 5.54001V1.05501H56.964C56.964 1.05501 56.873 1.05501 56.873 1.14701V5.54001H57.056C57.056 3.43501 58.246 1.23801 60.899 1.23801H61.083C61.174 1.23801 61.174 1.23801 61.174 1.33001V13.685C61.174 13.776 61.174 13.776 61.083 13.776H59.527V13.959H65.475V13.776H63.92C63.828 13.776 63.828 13.776 63.828 13.685V1.33001C63.828 1.23801 63.828 1.23801 63.92 1.23801H64.103C66.756 1.23801 68.038 3.34301 68.038 5.54001C68.038 5.63101 68.221 5.63101 68.221 5.54001ZM56.141 14.05V13.868H54.493C54.402 13.868 54.402 13.868 54.402 13.776V1.42101C54.402 1.33001 54.402 1.33001 54.493 1.33001H56.141V1.14701H50.192V1.33001H51.839C51.931 1.33001 51.931 1.33001 51.931 1.42101V13.776C51.931 13.868 51.931 13.868 51.839 13.868H50.192V14.051L56.141 14.05ZM49.094 14.05V13.868H47.447C47.355 13.868 47.355 13.868 47.355 13.776V1.42101C47.355 1.33001 47.355 1.33001 47.447 1.33001H49.094V1.14701H43.329V1.33001H44.793C44.884 1.33001 44.884 1.33001 44.884 1.42101V7.27801H40.674V1.42101C40.674 1.33001 40.674 1.33001 40.766 1.33001H42.23V1.14701H36.465V1.33001H38.021C38.112 1.33001 38.112 1.33001 38.112 1.42101V13.776C38.112 13.868 38.112 13.868 38.021 13.868H36.465V14.051H42.23V13.868H40.766C40.675 13.868 40.675 13.868 40.675 13.776V7.46101H44.885V13.776C44.885 13.868 44.885 13.868 44.793 13.868H43.329V14.051L49.094 14.05ZM35.092 14.325V9.38301H34.909C34.909 11.763 33.079 14.143 30.882 14.143C30.059 14.143 29.327 13.959 28.869 13.41C28.045 12.495 27.679 10.665 27.679 7.55301C27.679 4.44101 28.045 2.52001 28.869 1.69601C29.419 1.14601 29.967 0.964006 30.791 0.964006C32.621 0.964006 34.543 3.34401 34.543 5.17401H34.726V0.872006H34.543C34.543 1.05501 34.177 1.33001 33.628 1.33001C32.804 1.33001 31.615 0.872006 30.791 0.872006C27.313 0.872006 24.842 4.07501 24.842 7.64401C24.842 11.305 27.405 14.417 30.882 14.417C31.889 14.417 33.262 13.867 34.085 13.867C34.635 13.867 34.909 14.234 34.909 14.417C34.909 14.325 35.092 14.325 35.092 14.325ZM20.358 4.35001C20.358 6.63801 19.992 7.18701 18.253 7.18701H17.155V1.33001C17.155 1.23801 17.155 1.23801 17.247 1.23801H18.07C19.809 1.33001 20.358 2.06201 20.358 4.35001ZM25.758 13.776L25.666 13.593C25.391 13.868 25.116 14.051 24.659 14.051C24.019 14.051 23.561 13.501 23.561 12.495V10.848C23.561 9.01801 22.371 7.27801 19.443 7.27801C21.548 7.27801 23.012 5.90601 23.012 4.25801C23.012 2.42801 21.365 1.05501 18.619 1.05501H12.945V1.23801H14.593C14.684 1.23801 14.684 1.23801 14.684 1.33001V13.685C14.684 13.776 14.684 13.776 14.593 13.776H12.945V13.959H18.802V13.776H17.247C17.155 13.776 17.155 13.776 17.155 13.685V7.37001H18.253C19.901 7.37001 20.907 8.01001 20.907 9.56601V10.756C20.907 13.41 22.646 14.326 24.11 14.326C24.842 14.416 25.391 14.142 25.758 13.776ZM7.27001 9.47501H3.52001L5.44201 4.07501L7.27201 9.47501H7.27001ZM13.219 14.051V13.868H11.663C11.572 13.868 11.572 13.868 11.48 13.776L6.63101 0.781006C6.63101 0.689006 6.44801 0.689006 6.44801 0.781006L2.05501 13.044C1.78001 13.776 1.78001 13.776 1.59701 13.776H0.225006V13.959H3.70201C3.79401 13.959 3.79401 13.776 3.70201 13.776H2.14601C2.05501 13.776 2.05501 13.685 2.33001 13.044L3.52001 9.65801H7.45401L8.82701 13.776C8.82701 13.776 8.82701 13.868 8.73601 13.868H7.08801C6.99701 13.868 6.99701 14.051 7.08801 14.051H13.22H13.219ZM122.032 7.18701H120.934V1.33001C120.934 1.23801 120.934 1.23801 121.025 1.23801H121.849C123.588 1.23801 124.137 1.97101 124.137 4.25801C124.228 6.63801 123.862 7.18701 122.032 7.18701ZM128.438 13.867C127.798 13.867 127.34 13.227 127.34 12.312V10.939C127.34 9.10901 126.15 7.36901 123.222 7.36901C125.326 7.36901 126.791 5.99701 126.791 4.34901C126.791 2.51901 125.143 1.14701 122.398 1.14701H116.724V1.33001H118.371C118.463 1.33001 118.463 1.33001 118.463 1.42101V13.776C118.463 13.868 118.463 13.868 118.371 13.868H116.724V14.051H122.581V13.868H121.025C120.934 13.868 120.934 13.868 120.934 13.776V7.46101H122.032C123.679 7.46101 124.686 8.10201 124.686 9.65801V10.848C124.686 13.501 126.425 14.142 127.889 14.142H128.346V13.868H128.438V13.867ZM135.302 9.47501H131.55L133.471 4.07501L135.301 9.47501H135.302ZM141.25 14.051V13.868H139.694C139.603 13.868 139.603 13.868 139.511 13.776L134.661 0.781006C134.661 0.689006 134.478 0.689006 134.478 0.781006L130.085 13.044C129.811 13.776 129.811 13.776 129.628 13.776H128.621V13.959H131.733C131.824 13.959 131.824 13.776 131.733 13.776H130.177C130.085 13.776 130.085 13.685 130.36 13.044L131.55 9.65801H135.485L136.857 13.776C136.857 13.776 136.857 13.868 136.766 13.868H135.119C135.027 13.868 135.027 14.051 135.119 14.051H141.25Z" fill="black"/>
</svg>

<svg width="219" height="15" viewBox="0 0 219 15" xmlns="http://www.w3.org/2000/svg">
  <title>Architectural Digest</title>
  <path d="M218.947 5.54V1.055h-11.348s-.092 0-.092.092V5.54h.183c0-2.105 1.19-4.302 3.844-4.302h.183c.092 0 .092 0 .092.092v12.355c0 .091 0 .091-.092.091h-1.556v.183h5.949v-.183h-1.647c-.092 0-.092 0-.092-.091V1.33c0-.092 0-.092.092-.092h.183c2.654 0 3.935 2.105 3.935 4.302.091.091.366.091.366 0zm-11.531 4.484c0-2.196-1.464-3.112-3.844-3.935-2.288-.824-3.294-1.556-3.294-2.837 0-1.281.915-2.197 2.38-2.197 1.646 0 3.11 1.556 3.11 3.295h.184V.872c0-.091-.183-.091-.183 0 0 .183-.183.458-.732.458-.916 0-1.373-.458-2.38-.458-1.83 0-3.477 1.74-3.477 4.119 0 2.196 1.372 3.111 3.02 3.752 2.837 1.006 3.843 1.464 3.843 3.203 0 1.19-.915 2.38-3.02 2.38-2.38 0-4.026-2.838-4.026-4.302 0-.092-.184-.092-.184 0v4.484c0 .092.184.092.184 0 0-.366.457-.732 1.006-.732.732 0 1.83.732 3.112.732 2.745-.091 4.3-2.47 4.3-4.484zm-9.61 4.027V9.84h-.182c0 1.922-1.281 4.118-4.301 4.118h-1.83c-.092 0-.092 0-.092-.091V7.553h.457c1.465 0 2.38 1.19 2.38 2.47h.183V4.809h-.183c0 1.28-.915 2.47-2.38 2.47h-.457V1.33c0-.092 0-.092.091-.092h1.739c2.288 0 3.386 2.014 3.386 3.753h.183V1.147s0-.092-.091-.092h-9.61v.183h1.648c.091 0 .091 0 .091.092v12.355c0 .091 0 .091-.091.091h-1.648v.183l10.708.092zM187.65 9.2v-.184h-5.95V9.2h1.647c.092 0 .092 0 .092.092v3.294c0 1.007-.55 1.648-2.197 1.648-.823 0-1.464-.183-1.921-.733-.824-.915-.916-2.47-.916-5.857 0-3.203.275-5.033 1.19-5.857.55-.549 1.19-.732 1.922-.732 1.83 0 3.386 2.38 3.386 4.21h.183V.872h-.183c0 .183-.366.458-.915.458-.64 0-1.647-.458-2.471-.458-3.386 0-5.948 3.203-5.948 6.772 0 3.478 2.196 6.773 5.673 6.773 2.014 0 2.929-.916 3.753-.916.549 0 .732.275.823.641 0 .092.275.092.275 0V9.2s0-.091.091-.091h1.465V9.2zm-12.813 4.85v-.183h-1.647c-.091 0-.091 0-.091-.092V1.421c0-.091 0-.091.091-.091h1.647v-.183h-5.948v.183h1.647c.092 0 .092 0 .092.091v12.355c0 .092 0 .092-.092.092h-1.647v.183h5.948zm-9.06-6.498c0 3.478-.274 4.759-1.19 5.582-.548.55-1.098.641-1.921.641H161.2c-.092 0-.092 0-.092-.091V1.238c0-.091 0-.091.092-.091h1.464c.823 0 1.464.183 1.922.64.915 1.007 1.19 2.746 1.19 5.766zm2.837 0c0-3.57-2.654-6.498-5.857-6.498H156.9v.183h1.556c.092 0 .092 0 .092.092v12.355c0 .091 0 .091-.092.091H156.9v.183h5.857c3.203.092 5.857-2.837 5.857-6.406zm-16.747 6.498V9.658h-.183c0 1.83-1.281 4.21-4.027 4.21H146.1c-.091 0-.091 0-.091-.092V1.421c0-.091 0-.091.091-.091h1.648v-.183h-5.949v.183h1.648c.091 0 .091 0 .091.091v12.355c0 .092 0 .092-.091.092h-1.648v.183h10.067c-.092 0 0 0 0 0zM116.175 1.33v-.183h-3.66v.183h1.647c.091 0 .091 0 .091.091v8.877c0 2.288-1.098 3.753-3.66 3.753-2.014 0-2.654-1.373-2.654-3.57v-9.06c0-.091 0-.091.091-.091h1.647v-.183h-5.948v.183h1.647c.092 0 .092 0 .092.091v9.06c0 2.746 1.921 3.936 4.667 3.936 3.02 0 4.393-1.648 4.393-4.119V1.421c0-.091 0-.091.091-.091h1.556zm-13.178 4.21V1.055H91.74s-.091 0-.091.092V5.54h.183c0-2.105 1.19-4.302 3.843-4.302h.183c.092 0 .092 0 .092.092v12.355c0 .091 0 .091-.092.091h-1.555v.183h5.948v-.183h-1.647c-.092 0-.092 0-.092-.091V1.33c0-.092 0-.092.092-.092h.183c2.654 0 3.935 2.105 3.935 4.302 0 .091.275.091.275 0zm-12.172 8.785V9.383h-.183c0 2.38-1.83 4.76-4.027 4.76-.823 0-1.555-.184-2.013-.733-.824-.915-1.19-2.745-1.19-5.857s.366-5.033 1.19-5.857c.55-.55 1.098-.732 1.922-.732 1.83 0 3.752 2.38 3.752 4.21h.183V.872h-.183c0 .183-.366.458-.915.458-.824 0-2.014-.458-2.837-.458-3.478 0-5.949 3.203-5.949 6.772 0 3.661 2.563 6.773 6.04 6.773 1.007 0 2.38-.55 3.203-.55.55 0 .824.367.824.55 0-.092.183-.092.183-.092zm-10.982-.274V9.84h-.183c0 1.922-1.281 4.118-4.301 4.118h-1.83c-.092 0-.092 0-.092-.091V7.553h.458c1.464 0 2.38 1.19 2.38 2.47h.182V4.809h-.183c0 1.28-.915 2.47-2.38 2.47h-.457V1.33c0-.092 0-.092.092-.092h1.738c2.288 0 3.387 2.014 3.387 3.753h.183V1.147s0-.092-.092-.092h-9.61v.183h1.648c.092 0 .092 0 .092.092v12.355c0 .091 0 .091-.092.091h-1.647v.183l10.707.092c-.091 0 0 0 0 0zM68.221 5.54V1.055H56.964s-.091 0-.091.092V5.54h.183c0-2.105 1.19-4.302 3.843-4.302h.184c.091 0 .091 0 .091.092v12.355c0 .091 0 .091-.091.091h-1.556v.183h5.948v-.183H63.92c-.092 0-.092 0-.092-.091V1.33c0-.092 0-.092.092-.092h.183c2.653 0 3.935 2.105 3.935 4.302 0 .091.183.091.183 0zm-12.08 8.51v-.182h-1.648c-.091 0-.091 0-.091-.092V1.421c0-.091 0-.091.091-.091h1.648v-.183h-5.949v.183h1.647c.092 0 .092 0 .092.091v12.355c0 .092 0 .092-.092.092h-1.647v.183h5.949zm-7.047 0v-.182h-1.647c-.092 0-.092 0-.092-.092V1.421c0-.091 0-.091.092-.091h1.647v-.183h-5.765v.183h1.464c.091 0 .091 0 .091.091v5.857h-4.21V1.421c0-.091 0-.091.092-.091h1.464v-.183h-5.765v.183h1.556c.091 0 .091 0 .091.091v12.355c0 .092 0 .092-.091.092h-1.556v.183h5.765v-.183h-1.464c-.091 0-.091 0-.091-.092V7.461h4.21v6.315c0 .092 0 .092-.092.092h-1.464v.183h5.765zm-14.002.275V9.383h-.183c0 2.38-1.83 4.76-4.027 4.76-.823 0-1.555-.184-2.013-.733-.824-.915-1.19-2.745-1.19-5.857s.366-5.033 1.19-5.857c.55-.55 1.098-.732 1.922-.732 1.83 0 3.752 2.38 3.752 4.21h.183V.872h-.183c0 .183-.366.458-.915.458-.824 0-2.013-.458-2.837-.458-3.478 0-5.949 3.203-5.949 6.772 0 3.661 2.563 6.773 6.04 6.773 1.007 0 2.38-.55 3.203-.55.55 0 .824.367.824.55 0-.092.183-.092.183-.092zM20.358 4.35c0 2.288-.366 2.837-2.105 2.837h-1.098V1.33c0-.092 0-.092.092-.092h.823c1.739.092 2.288.824 2.288 3.112zm5.4 9.426l-.092-.183c-.275.275-.55.458-1.007.458-.64 0-1.098-.55-1.098-1.556v-1.647c0-1.83-1.19-3.57-4.118-3.57 2.105 0 3.569-1.372 3.569-3.02 0-1.83-1.647-3.203-4.393-3.203h-5.674v.183h1.648c.091 0 .091 0 .091.092v12.355c0 .091 0 .091-.091.091h-1.648v.183h5.857v-.183h-1.555c-.092 0-.092 0-.092-.091V7.37h1.098c1.648 0 2.654.64 2.654 2.196v1.19c0 2.654 1.739 3.57 3.203 3.57.732.09 1.281-.184 1.648-.55zM7.27 9.475H3.52l1.922-5.4 1.83 5.4zm5.949 4.576v-.183h-1.556c-.091 0-.091 0-.183-.092L6.631.781c0-.092-.183-.092-.183 0L2.055 13.044c-.275.732-.275.732-.458.732H.225v.183h3.477c.092 0 .092-.183 0-.183H2.146c-.091 0-.091-.091.184-.732l1.19-3.386h3.934l1.373 4.118s0 .092-.091.092H7.088c-.091 0-.091.183 0 .183h6.132zm108.813-6.864h-1.098V1.33c0-.092 0-.092.091-.092h.824c1.739 0 2.288.733 2.288 3.02.091 2.38-.275 2.929-2.105 2.929zm6.406 6.68c-.64 0-1.098-.64-1.098-1.555v-1.373c0-1.83-1.19-3.57-4.118-3.57 2.104 0 3.569-1.372 3.569-3.02 0-1.83-1.648-3.202-4.393-3.202h-5.674v.183h1.647c.092 0 .092 0 .092.091v12.355c0 .092 0 .092-.092.092h-1.647v.183h5.857v-.183h-1.556c-.091 0-.091 0-.091-.092V7.461h1.098c1.647 0 2.654.641 2.654 2.197v1.19c0 2.653 1.739 3.294 3.203 3.294h.457v-.274h.092zm6.864-4.392h-3.752l1.921-5.4 1.83 5.4zm5.948 4.576v-.183h-1.556c-.091 0-.091 0-.183-.092L134.661.781c0-.092-.183-.092-.183 0l-4.393 12.263c-.274.732-.274.732-.457.732h-1.007v.183h3.112c.091 0 .091-.183 0-.183h-1.556c-.092 0-.092-.091.183-.732l1.19-3.386h3.935l1.372 4.118s0 .092-.091.092h-1.647c-.092 0-.092.183 0 .183h6.131z" fill-rule="evenodd" />
</svg>
